Pods/ProtonCore-UIFoundations/libraries/UIFoundations/Sources/Assets.xcassets/Images/IconSet/ic-squares.imageset/ic-squares.svg

<svg width="24" height="24" viewBox="0 0 24 24" fill="none" xmlns="http://www.w3.org/2000/svg">
<path fill-rule="evenodd" clip-rule="evenodd" d="M10.2273 1.5C8.72105 1.5 7.5 2.72105 7.5 4.22729V6.00002H9V4.22729C9 3.54948 9.54948 3 10.2273 3H19.5C20.3284 3 21 3.67157 21 4.5V13.5C21 14.3284 20.3284 15 19.5 15H18V16.5H19.5C21.1569 16.5 22.5 15.1569 22.5 13.5V4.5C22.5 2.84315 21.1569 1.5 19.5 1.5H10.2273ZM3 10.5C3 9.67157 3.67157 9 4.5 9H13.5C14.3284 9 15 9.67157 15 10.5V19.5C15 20.3284 14.3284 21 13.5 21H4.5C3.67157 21 3 20.3284 3 19.5V10.5ZM1.5 10.5C1.5 8.84315 2.84315 7.5 4.5 7.5H13.5C15.1569 7.5 16.5 8.84315 16.5 10.5V19.5C16.5 21.1569 15.1569 22.5 13.5 22.5H4.5C2.84315 22.5 1.5 21.1569 1.5 19.5V10.5Z" fill="#0C0C14"/>
</svg>

<svg xmlns="http://www.w3.org/2000/svg" width="24" height="24" viewBox="0 0 24 24">
  <g class="ic-squares">
    <path fill-rule="evenodd" d="M10.227 1.5A2.727 2.727 0 0 0 7.5 4.227V6H9V4.227C9 3.55 9.55 3 10.227 3H19.5A1.5 1.5 0 0 1 21 4.5v9a1.5 1.5 0 0 1-1.5 1.5H18v1.5h1.5a3 3 0 0 0 3-3v-9a3 3 0 0 0-3-3h-9.273ZM3 10.5A1.5 1.5 0 0 1 4.5 9h9a1.5 1.5 0 0 1 1.5 1.5v9a1.5 1.5 0 0 1-1.5 1.5h-9A1.5 1.5 0 0 1 3 19.5v-9Zm-1.5 0a3 3 0 0 1 3-3h9a3 3 0 0 1 3 3v9a3 3 0 0 1-3 3h-9a3 3 0 0 1-3-3v-9Z" class="Icon"/>
  </g>
</svg>
